X: 24851
T: Maggie's Pancakes
R: reel
M: 4/4
K: Bminor
fB B/B/B fgfe|dB B/B/B GBdB|cAAd AAec|AfdB ecAc|
fB B/B/B fgfe|dB B/B/B GBdB|cABc ABce-|efec Bcde:|
|:f2dB GBdB|caec dB B/B/B|f2dB GBdB|cAec Bcde|
fd d/d/d fgfe|dB B/B/B GBdB|cAdA ecAa-|afec Bcde:|

